X: 102
T: Blowin' in The Wind
M:4/4
R:reel
L:1/8
Z:Alf Warnock - alf0@rogers.com
K:C
|:"C"G4 G2GA-|"F"A4zA2A|"C"G4zED2|"Am"C8|
"C"G4zG2G|"F"A4zGF2|"Gsus"G8-|[1,2G8:|[3 G6 E2||
"F"F4 F2ED-|"G7"D4zC2D|"C"E4 "E"E2DC-|"Am"C6E2|
"F"F4 F2E2|"G"D2D3C2B,|"C"C8-|C8|

